X: 1
T: Hughie Shorty's Reel
C: Johnny Wilmot
M: C|
L:1/8
R: reel
K: G
"G"D2|G2BG "D7"cAFA| "G"GABd g2fg| "C"ecAc "G/B"dBGB| "Am"cAAB "D7"AFDF|
"G"G2BG "D7"cAFA| "G"GABd g2fg| "C"ecAc "G"dBGB| "D7"(3cBA GF "G"G2 :|
d2|:"G"g2fg bgfg| "C"eccc efge| "G"dBBB "Em"dBGB| "Am"cAAB "D"AFD2|
"G"g2fg bgfg| "C"eccc efge| "G"dBBB "Em"dBGB| "D7"(3cBA GF "G"G2 Bd|
"G"g2fg bgfg| "C"eccc efge| "G"dBBB "Em"dBGB| "Am"cAAB "D"AFED|
"C"CDEC "G"B,DGB| "D"cdef "Em"g2fg| "C"ecAc "G"dBGB|"D7"(3cBA GF "G"G2|]
